;Generated from temp.svg 7bc937a3bace48a17387db7b64fd52515538ff75
; gc_nexgen gc_options: beamOS:0.7.13.1 (f_add_gcode_tests branch) on n8, gc_nextgen:0.1, enabled:true, precision:0.05, optimize_travel:true, small_paths_first:true, clip_working_area:true, clipRect:0,0,500,390, userAgent:Mozilla/5.0 (X11; Linux x86_64) AppleWebKit/537.36 (KHTML, like Gecko) Chrome/87.0.4280.88 Safari/537.36
; created:2020-12-30 23:12:39
; laser params: {u'#130df2': {u'passes': u'1', u'feedrate': u'999', u'progressive': False, u'color': u'#130df2', u'intensity': 1287, u'intensity_user': u'99', u'cut_compressor': 100, 'mpr': 1.29, 'svgDPI': 90, u'engrave': False, u'pierce_time': u'1'}}

; speedup cooling fan
M3S0
G4P0.5
M5
; end speedup cooling fan

; Image: 349.33x14.55 @ 150.67,231.59|data:image/png;base64,iVBORw0KGgoAAAANSUhEUgAAAV0AAAAOCAYAAACM5c9aAAAEv0lEQVR4Xu2aTShtURTH1y1kIJTkYyBlgDLwmZKvDJAUGTJhgJIBA18zUjIkAxMDJgaUKJkoI0NGhiRihHwUUuS+/vu1juN23Hf2Pvvq1lu77uB55/zOWv+99lpr73NC4XA4TDJEAVFAFBAFfkWBkCTdX9FZHiIKiAKigFJAkq4EgiggCogCv6iAJN1fFJsftbCwQBcXF5Senk6Pj480MjJC+fn5xpbY5k1PTyu7bNkXKx4LFkQ/+Lm4uEgPDw8Kh3/DXtP58OJhfqClyWAenwIibuKZx/rZ8jfeeCZzGHmPJF0bKmowOjs7qb29nVpaWujg4ICSk5Npb2+P+vr6qLGxUYP099Le3l6qra2NOW90dJRKS0u17OOCUldXR83NzY6/+/v7NDw8HBe8oaEh6ujooJqaGtra2qLs7GwKYp+bx/O7s7ND4+PjRv7GgtfV1UXV1dVqPlJTU2lzc5Pm5ua0Cw3mt6enR8VuUVERHR8fW+dhPtbW1qzZF4SnFfxRLpaka0tJHxx0KOhYysvLnQSLrur5+Zlub29pdXXVB+XrEts82JKWluZp3+npKW1vb2vZBx4WdUFBAaHYYATxF/fm5OSoxMg8aHB5eUnn5+fa9qFDLi4uVoUPxQsjKK+srMwphm7e/f299vzCvoqKCvr8/HTsgwY3Nzf08vJizIMtYPN8ICbRQevGHxj19fV0dXXl8PC3hIQEen9/V1rqDC8ex4spr6qqiu7u7hz7YNP19bWRfTq+RLtWkq4tJX1wsLDf3t5oamrK6XoQBEhmlZWVqmvQ6SYRpK+vr+o+7pLBQqCik5mcnNTqXsBD8h8YGLDGOzs7o7GxsW88+FxYWEjz8/Na2274dXR09I2HRIGfCQ/+wr7+/n4niTOvpKSEZmdntewDDwUA88xFwc1bWlryESVflzAPLC4KzMvLy1MdoM4AIxQKqblgHuIFTBRHm7yMjAxaWVnRMU8lxqenJ0/7EhMTaWNjQ4vX3d1NWVlZag1wkYG/+KFo6fK0Hi6dri25gnEQ6NjaoXPh81Js0TIzM+nk5IRaW1u1ky62xghUDLAwwDs8PKTBwUHtpMs82IfuByMpKUnZF5QH+/Bj3sTEhFZSQ9JtaGhQ/rJ+sO/j40NtbXV5WIhuf1k/LHDoZ8Jra2tThdBtXxBeU1PTt3iBv+Dt7u7S8vKyVkB6xZ8NHjpn9xmuqX2YD/aXHcOc5ObmqsKwvr6u7S+O8tB5u9dbSkqKOkrS5Wk9XJKuLbmCcdDhocvw6maxIHS3d7Z5SGroqmzZF42H55gcV0Anr5dcJjws8p9ewtnmmczvT/bxWbluvICHOYl8yRULHp5jcrzwk33xwAu2+r/uluMFW0r65GDxIfg5sSHgZ2ZmVMdl+iItksfJTpfHi8+LB7t1jj648+bE4fYX9gXhub8u4Lfb/xMvUlOfoad2GdAJyZALF8+5yRcbseCh2KGYxKN9fnX+13WSdP+lUAz+nz+hYnSQT57AAM99vBBPPCxM7nh4+x7EPuFRoE8MvfTz6i79hn2secwP8gka+8fHW0E+ufOrS7TrJOnaUFEYooAoIAr4VECSrk+h5DJRQBQQBWwoIEnXhorCEAVEAVHApwJ/AIRASRNE7VztAAAAAElFTkSuQmCC
; self.beam = 1.00
; pierce_time = 0.001s
; intensity_black = 1001
; intensity_white = 91
; intensity_black_user = 77
; intensity_white_user = 7
; feedrate_white = 888
; feedrate_black = 88
; backlash_compensation_x = 0.000
; material = {u'params_changed': True, u'color': u'293365', u'material_name': u'Felt', u'material_key': u'Felt', u'custom': False, u'thickness_mm': 3}
; contrastFactor = 1.00
; sharpeningFactor = 1.00
; dithering = False
; overshoot distance = 0
; separation = False
; eng_compressor = 100

M100P100 ; mrbeam_compressor:100
G4P0.2   ; mrbeam_compressor spin up time
F888.0
; Begin part c0.11 @ pixel (91,3) with dimensions 9x8
G0X241.67Y242.15S0; ; Move to start (241.671707153,242.149847412)
M3S0
G4P0
G0X243.67Y235.15S0; goto line start->
G1X243.67S547F486; brightness: 127
G1X246.67S604F436; brightness: 111
G1X247.67S205F787; brightness: 223
M3S0; EOL: x=[2 -> 6], y=7
G0X248.67Y236.15S0; goto line start<- [backlash_compensation_x: 0.000]
G1X247.67S319F687; brightness: 191
G1X246.67S601F439; brightness: 112
G1X245.67S148F837; brightness: 239
G0X243.67S0; brightness: 255
M3S1000
G4P0.001

G1X242.67S262F737; brightness: 207
G1X242.67S661F386; brightness: 95
M3S0; EOL: x=[1 <- 7], y=6
G0X241.67Y237.15S0; goto line start->
G1X241.67S490F536; brightness: 143
G1X242.67S262F737; brightness: 207
G0X247.67S0; brightness: 255
M3S1000
G4P0.001

G1X248.67S661F386; brightness: 95
M3S0; EOL: x=[0 -> 7], y=5
G0X249.67Y238.15S0; goto line start<- [backlash_compensation_x: 0.000]
G1X248.67S262F737; brightness: 207
G1X247.67S519F511; brightness: 135
G1X246.67S358F652; brightness: 180
G1X245.67S433F586; brightness: 159
G1X244.67S376F637; brightness: 175
G1X243.67S319F687; brightness: 191
G1X242.67S376F637; brightness: 175
G1X241.67S369F643; brightness: 177
G1X241.67S661F386; brightness: 95
M3S0; EOL: x=[0 <- 8], y=4
G0X241.67Y239.15S0; goto line start->
G1X241.67S661F386; brightness: 95
G1X242.67S690F360; brightness: 87
G1X243.67S258F740; brightness: 208
G1X245.67S1001F88; brightness: 0
G1X246.67S487F539; brightness: 144
G1X247.67S772F288; brightness: 64
G1X248.67S587F451; brightness: 116
G1X249.67S262F737; brightness: 207
M3S0; EOL: x=[0 -> 8], y=3
G0X248.67Y240.15S0; goto line start<- [backlash_compensation_x: 0.000]
G1X247.67S661F386; brightness: 95
G1X246.67S587F451; brightness: 116
G1X245.67S544F489; brightness: 128
G1X243.67S1001F88; brightness: 0
G1X242.67S315F690; brightness: 192
G1X241.67S494F533; brightness: 142
G1X241.67S490F536; brightness: 143
M3S0; EOL: x=[0 <- 7], y=2
G0X242.67Y241.15S0; goto line start->
G1X242.67S719F335; brightness: 79
G1X243.67S447F574; brightness: 155
G1X244.67S194F797; brightness: 226
G1X245.67S430F589; brightness: 160
G1X246.67S401F615; brightness: 168
G1X247.67S665F382; brightness: 94
G1X248.67S319F687; brightness: 191
M3S0; EOL: x=[1 -> 7], y=1
G0X247.67Y242.15S0; goto line start<- [backlash_compensation_x: 0.000]
G1X246.67S205F787; brightness: 223
G1X245.67S604F436; brightness: 111
G1X244.67S547F486; brightness: 127
G1X243.67S604F436; brightness: 111
G1X243.67S490F536; brightness: 143
M3S0; EOL: x=[2 <- 6], y=0
; EndPart
M3S0

; Begin part c0.10 @ pixel (111,3) with dimensions 9x8
G0X261.67Y242.15S0; ; Move to start (261.671707153,242.149847412)
M3S0
G4P0
G0X263.67Y235.15S0; goto line start->
G1X264.67S547F486; brightness: 127
G1X266.67S604F436; brightness: 111
G1X267.67S205F787; brightness: 223
M3S0; EOL: x=[2 -> 6], y=7
G0X268.67Y236.15S0; goto line start<- [backlash_compensation_x: 0.000]
G1X267.67S319F687; brightness: 191
G1X266.67S604F436; brightness: 111
G1X265.67S148F837; brightness: 239
G0X263.67S0; brightness: 255
M3S1000
G4P0.001

G1X262.67S262F737; brightness: 207
G1X262.67S661F386; brightness: 95
M3S0; EOL: x=[1 <- 7], y=6
G0X261.67Y237.15S0; goto line start->
G1X261.67S490F536; brightness: 143
G1X262.67S262F737; brightness: 207
G0X267.67S0; brightness: 255
M3S1000
G4P0.001

G1X268.67S661F386; brightness: 95
M3S0; EOL: x=[0 -> 7], y=5
G0X269.67Y238.15S0; goto line start<- [backlash_compensation_x: 0.000]
G1X268.67S205F787; brightness: 223
G1X267.67S572F464; brightness: 120
G1X266.67S358F652; brightness: 180
G1X264.67S433F586; brightness: 159
G1X262.67S376F637; brightness: 175
G1X261.67S322F684; brightness: 190
G1X261.67S604F436; brightness: 111
M3S0; EOL: x=[0 <- 8], y=4
G0X261.67Y239.15S0; goto line start->
G1X261.67S604F436; brightness: 111
G1X262.67S640F404; brightness: 101
G1X263.67S315F690; brightness: 192
G1X265.67S1001F88; brightness: 0
G1X266.67S372F640; brightness: 176
G1X267.67S829F238; brightness: 48
G1X268.67S633F411; brightness: 103
G1X269.67S205F787; brightness: 223
M3S0; EOL: x=[0 -> 8], y=3
G0X268.67Y240.15S0; goto line start<- [backlash_compensation_x: 0.000]
G1X267.67S661F386; brightness: 95
G1X266.67S587F451; brightness: 116
G1X265.67S544F489; brightness: 128
G1X263.67S1001F88; brightness: 0
G1X262.67S315F690; brightness: 192
G1X261.67S494F533; brightness: 142
G1X261.67S490F536; brightness: 143
M3S0; EOL: x=[0 <- 7], y=2
G0X262.67Y241.15S0; goto line start->
G1X262.67S661F386; brightness: 95
G1X263.67S447F574; brightness: 155
G1X264.67S194F797; brightness: 226
G1X265.67S430F589; brightness: 160
G1X266.67S401F615; brightness: 168
G1X267.67S665F382; brightness: 94
G1X268.67S319F687; brightness: 191
M3S0; EOL: x=[1 -> 7], y=1
G0X267.67Y242.15S0; goto line start<- [backlash_compensation_x: 0.000]
G1X266.67S205F787; brightness: 223
G1X265.67S604F436; brightness: 111
G1X264.67S547F486; brightness: 127
G1X263.67S604F436; brightness: 111
G1X263.67S490F536; brightness: 143
M3S0; EOL: x=[2 <- 6], y=0
; EndPart
M3S0

; Begin part c0.9 @ pixel (131,3) with dimensions 9x8
G0X281.67Y242.15S0; ; Move to start (281.671707153,242.149847412)
M3S0
G4P0
G0X283.67Y235.15S0; goto line start->
G1X284.67S547F486; brightness: 127
G1X286.67S604F436; brightness: 111
G1X287.67S205F787; brightness: 223
M3S0; EOL: x=[2 -> 6], y=7
G0X288.67Y236.15S0; goto line start<- [backlash_compensation_x: 0.000]
G1X287.67S262F737; brightness: 207
G1X286.67S604F436; brightness: 111
G1X285.67S148F837; brightness: 239
G0X283.67S0; brightness: 255
M3S1000
G4P0.001

G1X282.67S262F737; brightness: 207
G1X281.67S661F386; brightness: 95
G1X281.67S148F837; brightness: 239
M3S0; EOL: x=[0 <- 7], y=6
G0X281.67Y237.15S0; goto line start->
G1X281.67S547F486; brightness: 127
G1X282.67S262F737; brightness: 207
G0X287.67S0; brightness: 255
M3S1000
G4P0.001

G1X288.67S661F386; brightness: 95
M3S0; EOL: x=[0 -> 7], y=5
G0X289.67Y238.15S0; goto line start<- [backlash_compensation_x: 0.000]
G1X288.67S205F787; brightness: 223
G1X287.67S572F464; brightness: 120
G1X286.67S412F605; brightness: 165
G1X284.67S433F586; brightness: 159
G1X283.67S319F687; brightness: 191
G1X282.67S376F637; brightness: 175
G1X281.67S322F684; brightness: 190
G1X281.67S604F436; brightness: 111
M3S0; EOL: x=[0 <- 8], y=4
G0X281.67Y239.15S0; goto line start->
G1X281.67S604F436; brightness: 111
G1X282.67S679F370; brightness: 90
G1X283.67S315F690; brightness: 192
G1X285.67S1001F88; brightness: 0
G1X286.67S372F640; brightness: 176
G1X287.67S829F238; brightness: 48
G1X288.67S633F411; brightness: 103
G1X289.67S205F787; brightness: 223
M3S0; EOL: x=[0 -> 8], y=3
G0X288.67Y240.15S0; goto line start<- [backlash_compensation_x: 0.000]
G1X287.67S719F335; brightness: 79
G1X286.67S587F451; brightness: 116
G1X285.67S544F489; brightness: 128
G1X283.67S1001F88; brightness: 0
G1X282.67S315F690; brightness: 192
G1X281.67S494F533; brightness: 142
G1X281.67S547F486; brightness: 127
M3S0; EOL: x=[0 <- 7], y=2
G0X282.67Y241.15S0; goto line start->
G1X282.67S661F386; brightness: 95
G1X283.67S447F574; brightness: 155
G1X284.67S194F797; brightness: 226
G1X285.67S430F589; brightness: 160
G1X286.67S401F615; brightness: 168
G1X287.67S665F382; brightness: 94
G1X288.67S262F737; brightness: 207
M3S0; EOL: x=[1 -> 7], y=1
G0X287.67Y242.15S0; goto line start<- [backlash_compensation_x: 0.000]
G1X286.67S205F787; brightness: 223
G1X285.67S604F436; brightness: 111
G1X284.67S547F486; brightness: 127
G1X283.67S604F436; brightness: 111
G1X283.67S547F486; brightness: 127
M3S0; EOL: x=[2 <- 6], y=0
; EndPart
M3S0

; Begin part c0.8 @ pixel (151,3) with dimensions 9x8
G0X301.67Y242.15S0; ; Move to start (301.671707153,242.149847412)
M3S0
G4P0
G0X302.67Y235.15S0; goto line start->
G1X302.67S148F837; brightness: 239
G1X304.67S547F486; brightness: 127
G1X306.67S604F436; brightness: 111
G1X307.67S205F787; brightness: 223
M3S0; EOL: x=[1 -> 6], y=7
G0X308.67Y236.15S0; goto line start<- [backlash_compensation_x: 0.000]
G1X307.67S262F737; brightness: 207
G1X306.67S604F436; brightness: 111
G1X305.67S148F837; brightness: 239
G0X303.67S0; brightness: 255
M3S1000
G4P0.001

G1X302.67S262F737; brightness: 207
G1X301.67S661F386; brightness: 95
G1X301.67S148F837; brightness: 239
M3S0; EOL: x=[0 <- 7], y=6
G0X301.67Y237.15S0; goto line start->
G1X301.67S547F486; brightness: 127
G1X302.67S262F737; brightness: 207
G0X307.67S0; brightness: 255
M3S1000
G4P0.001

G1X308.67S719F335; brightness: 79
M3S0; EOL: x=[0 -> 7], y=5
G0X309.67Y238.15S0; goto line start<- [backlash_compensation_x: 0.000]
G1X308.67S148F837; brightness: 239
G1X307.67S572F464; brightness: 120
G1X306.67S412F605; brightness: 165
G1X305.67S433F586; brightness: 159
G1X304.67S376F637; brightness: 175
G1X303.67S319F687; brightness: 191
G1X302.67S376F637; brightness: 175
G1X301.67S322F684; brightness: 190
G1X301.67S604F436; brightness: 111
M3S0; EOL: x=[0 <- 8], y=4
G0X301.67Y239.15S0; goto line start->
G1X301.67S604F436; brightness: 111
G1X302.67S733F323; brightness: 75
G1X303.67S315F690; brightness: 192
G1X305.67S1001F88; brightness: 0
G1X306.67S372F640; brightness: 176
G1X307.67S772F288; brightness: 64
G1X308.67S633F411; brightness: 103
G1X309.67S148F837; brightness: 239
M3S0; EOL: x=[0 -> 8], y=3
G0X308.67Y240.15S0; goto line start<- [backlash_compensation_x: 0.000]
G1X307.67S661F386; brightness: 95
G1X306.67S587F451; brightness: 116
G1X305.67S544F489; brightness: 128
G1X303.67S1001F88; brightness: 0
G1X302.67S372F640; brightness: 176
G1X301.67S497F530; brightness: 141
G1X301.67S547F486; brightness: 127
M3S0; EOL: x=[0 <- 7], y=2
G0X301.67Y241.15S0; goto line start->
G1X301.67S148F837; brightness: 239
G1X302.67S661F386; brightness: 95
G1X303.67S444F577; brightness: 156
G1X304.67S194F797; brightness: 226
G1X305.67S430F589; brightness: 160
G1X306.67S401F615; brightness: 168
G1X307.67S647F398; brightness: 99
G1X308.67S262F737; brightness: 207
M3S0; EOL: x=[0 -> 7], y=1
G0X307.67Y242.15S0; goto line start<- [backlash_compensation_x: 0.000]
G1X306.67S205F787; brightness: 223
G1X305.67S604F436; brightness: 111
G1X304.67S547F486; brightness: 127
G1X303.67S604F436; brightness: 111
G1X303.67S547F486; brightness: 127
M3S0; EOL: x=[2 <- 6], y=0
; EndPart
M3S0

; Begin part c0.7 @ pixel (171,3) with dimensions 9x8
G0X321.67Y242.15S0; ; Move to start (321.671707153,242.149847412)
M3S0
G4P0
G0X322.67Y235.15S0; goto line start->
G1X322.67S148F837; brightness: 239
G1X324.67S547F486; brightness: 127
G1X326.67S604F436; brightness: 111
G1X327.67S205F787; brightness: 223
M3S0; EOL: x=[1 -> 6], y=7
G0X328.67Y236.15S0; goto line start<- [backlash_compensation_x: 0.000]
G1X327.67S262F737; brightness: 207
G1X326.67S604F436; brightness: 111
G1X325.67S148F837; brightness: 239
G0X323.67S0; brightness: 255
M3S1000
G4P0.001

G1X322.67S205F787; brightness: 223
G1X321.67S661F386; brightness: 95
G1X321.67S148F837; brightness: 239
M3S0; EOL: x=[0 <- 7], y=6
G0X321.67Y237.15S0; goto line start->
G1X321.67S547F486; brightness: 127
G1X322.67S205F787; brightness: 223
G0X327.67S0; brightness: 255
M3S1000
G4P0.001

G1X328.67S719F335; brightness: 79
M3S0; EOL: x=[0 -> 7], y=5
G0X329.67Y238.15S0; goto line start<- [backlash_compensation_x: 0.000]
G1X328.67S148F837; brightness: 239
G1X327.67S572F464; brightness: 120
G1X326.67S390F624; brightness: 171
G1X324.67S376F637; brightness: 175
G1X323.67S319F687; brightness: 191
G1X322.67S376F637; brightness: 175
G1X321.67S322F684; brightness: 190
G1X321.67S547F486; brightness: 127
M3S0; EOL: x=[0 <- 8], y=4
G0X321.67Y239.15S0; goto line start->
G1X321.67S547F486; brightness: 127
G1X322.67S733F323; brightness: 75
G1X323.67S315F690; brightness: 192
G1X325.67S1001F88; brightness: 0
G1X326.67S430F589; brightness: 160
G1X327.67S772F288; brightness: 64
G1X328.67S633F411; brightness: 103
G1X329.67S148F837; brightness: 239
M3S0; EOL: x=[0 -> 8], y=3
G0X328.67Y240.15S0; goto line start<- [backlash_compensation_x: 0.000]
G1X327.67S719F335; brightness: 79
G1X326.67S597F442; brightness: 113
G1X325.67S487F539; brightness: 144
G1X323.67S1001F88; brightness: 0
G1X322.67S372F640; brightness: 176
G1X321.67S458F564; brightness: 152
G1X321.67S547F486; brightness: 127
M3S0; EOL: x=[0 <- 7], y=2
G0X321.67Y241.15S0; goto line start->
G1X321.67S148F837; brightness: 239
G1X322.67S661F386; brightness: 95
G1X323.67S444F577; brightness: 156
G1X324.67S194F797; brightness: 226
G1X325.67S430F589; brightness: 160
G1X326.67S401F615; brightness: 168
G1X327.67S647F398; brightness: 99
G1X328.67S262F737; brightness: 207
M3S0; EOL: x=[0 -> 7], y=1
G0X327.67Y242.15S0; goto line start<- [backlash_compensation_x: 0.000]
G1X326.67S205F787; brightness: 223
G1X323.67S604F436; brightness: 111
G1X323.67S547F486; brightness: 127
M3S0; EOL: x=[2 <- 6], y=0
; EndPart
M3S0

; Begin part c0.6 @ pixel (191,3) with dimensions 9x8
G0X341.67Y242.15S0; ; Move to start (341.671707153,242.149847412)
M3S0
G4P0
G0X342.67Y235.15S0; goto line start->
G1X342.67S148F837; brightness: 239
G1X344.67S547F486; brightness: 127
G1X346.67S604F436; brightness: 111
G1X347.67S205F787; brightness: 223
M3S0; EOL: x=[1 -> 6], y=7
G0X348.67Y236.15S0; goto line start<- [backlash_compensation_x: 0.000]
G1X347.67S262F737; brightness: 207
G1X346.67S604F436; brightness: 111
G1X345.67S148F837; brightness: 239
G0X343.67S0; brightness: 255
M3S1000
G4P0.001

G1X342.67S205F787; brightness: 223
G1X341.67S661F386; brightness: 95
G1X341.67S148F837; brightness: 239
M3S0; EOL: x=[0 <- 7], y=6
G0X341.67Y237.15S0; goto line start->
G1X341.67S604F436; brightness: 111
G1X342.67S205F787; brightness: 223
G0X347.67S0; brightness: 255
M3S1000
G4P0.001

G1X348.67S719F335; brightness: 79
M3S0; EOL: x=[0 -> 7], y=5
G0X349.67Y238.15S0; goto line start<- [backlash_compensation_x: 0.000]
G1X348.67S148F837; brightness: 239
G1X347.67S572F464; brightness: 120
G1X346.67S358F652; brightness: 180
G1X344.67S376F637; brightness: 175
G1X343.67S319F687; brightness: 191
G1X342.67S376F637; brightness: 175
G1X341.67S322F684; brightness: 190
G1X341.67S604F436; brightness: 111
M3S0; EOL: x=[0 <- 8], y=4
G0X341.67Y239.15S0; goto line start->
G1X341.67S604F436; brightness: 111
G1X342.67S733F323; brightness: 75
G1X343.67S372F640; brightness: 176
G1X345.67S1001F88; brightness: 0
G1X346.67S430F589; brightness: 160
G1X347.67S772F288; brightness: 64
G1X348.67S615F426; brightness: 108
G1X349.67S148F837; brightness: 239
M3S0; EOL: x=[0 -> 8], y=3
G0X348.67Y240.15S0; goto line start<- [backlash_compensation_x: 0.000]
G1X347.67S719F335; brightness: 79
G1X346.67S597F442; brightness: 113
G1X345.67S487F539; brightness: 144
G1X343.67S1001F88; brightness: 0
G1X342.67S430F589; brightness: 160
G1X341.67S458F564; brightness: 152
G1X341.67S604F436; brightness: 111
M3S0; EOL: x=[0 <- 7], y=2
G0X341.67Y241.15S0; goto line start->
G1X341.67S148F837; brightness: 239
G1X342.67S683F367; brightness: 89
G1X343.67S401F615; brightness: 168
G1X344.67S194F797; brightness: 226
G1X345.67S487F539; brightness: 144
G1X346.67S401F615; brightness: 168
G1X347.67S647F398; brightness: 99
G1X348.67S262F737; brightness: 207
M3S0; EOL: x=[0 -> 7], y=1
G0X347.67Y242.15S0; goto line start<- [backlash_compensation_x: 0.000]
G1X346.67S205F787; brightness: 223
G1X345.67S661F386; brightness: 95
G1X343.67S604F436; brightness: 111
G1X342.67S544F489; brightness: 128
G1X342.67S148F837; brightness: 239
M3S0; EOL: x=[1 <- 6], y=0
; EndPart
M3S0

; Begin part c0.5 @ pixel (211,3) with dimensions 9x8
G0X361.67Y242.15S0; ; Move to start (361.671707153,242.149847412)
M3S0
G4P0
G0X362.67Y235.15S0; goto line start->
G1X362.67S148F837; brightness: 239
G1X364.67S547F486; brightness: 127
G1X366.67S604F436; brightness: 111
G1X367.67S205F787; brightness: 223
M3S0; EOL: x=[1 -> 6], y=7
G0X368.67Y236.15S0; goto line start<- [backlash_compensation_x: 0.000]
G1X367.67S262F737; brightness: 207
G1X366.67S604F436; brightness: 111
G1X365.67S148F837; brightness: 239
G0X363.67S0; brightness: 255
M3S1000
G4P0.001

G1X362.67S205F787; brightness: 223
G1X361.67S661F386; brightness: 95
G1X361.67S148F837; brightness: 239
M3S0; EOL: x=[0 <- 7], y=6
G0X361.67Y237.15S0; goto line start->
G1X361.67S604F436; brightness: 111
G1X362.67S205F787; brightness: 223
G0X367.67S0; brightness: 255
M3S1000
G4P0.001

G1X368.67S661F386; brightness: 95
M3S0; EOL: x=[0 -> 7], y=5
G0X369.67Y238.15S0; goto line start<- [backlash_compensation_x: 0.000]
G1X368.67S148F837; brightness: 239
G1X367.67S572F464; brightness: 120
G1X366.67S358F652; brightness: 180
G1X364.67S376F637; brightness: 175
G1X363.67S319F687; brightness: 191
G1X362.67S376F637; brightness: 175
G1X361.67S340F668; brightness: 185
G1X361.67S604F436; brightness: 111
M3S0; EOL: x=[0 <- 8], y=4
G0X361.67Y239.15S0; goto line start->
G1X361.67S604F436; brightness: 111
G1X362.67S715F338; brightness: 80
G1X363.67S372F640; brightness: 176
G1X365.67S1001F88; brightness: 0
G1X366.67S430F589; brightness: 160
G1X367.67S772F288; brightness: 64
G1X368.67S615F426; brightness: 108
M3S0; EOL: x=[0 -> 7], y=3
G0X368.67Y240.15S0; goto line start<- [backlash_compensation_x: 0.000]
G1X367.67S661F386; brightness: 95
G1X366.67S597F442; brightness: 113
G1X365.67S487F539; brightness: 144
G1X363.67S1001F88; brightness: 0
G1X361.67S430F589; brightness: 160
G1X361.67S604F436; brightness: 111
M3S0; EOL: x=[0 <- 7], y=2
G0X361.67Y241.15S0; goto line start->
G1X361.67S148F837; brightness: 239
G1X362.67S683F367; brightness: 89
G1X363.67S401F615; brightness: 168
G1X364.67S194F797; brightness: 226
G1X365.67S430F589; brightness: 160
G1X366.67S401F615; brightness: 168
G1X367.67S683F367; brightness: 89
G1X368.67S262F737; brightness: 207
M3S0; EOL: x=[0 -> 7], y=1
G0X367.67Y242.15S0; goto line start<- [backlash_compensation_x: 0.000]
G1X366.67S148F837; brightness: 239
G1X365.67S661F386; brightness: 95
G1X363.67S604F436; brightness: 111
G1X362.67S544F489; brightness: 128
G1X362.67S148F837; brightness: 239
M3S0; EOL: x=[1 <- 6], y=0
; EndPart
M3S0

; Begin part c0.4 @ pixel (231,3) with dimensions 8x8
G0X381.67Y242.15S0; ; Move to start (381.671707153,242.149847412)
M3S0
G4P0
G0X382.67Y235.15S0; goto line start->
G1X382.67S148F837; brightness: 239
G1X384.67S547F486; brightness: 127
G1X386.67S604F436; brightness: 111
G1X387.67S205F787; brightness: 223
M3S0; EOL: x=[1 -> 6], y=7
G0X388.67Y236.15S0; goto line start<- [backlash_compensation_x: 0.000]
G1X387.67S262F737; brightness: 207
G1X386.67S661F386; brightness: 95
G1X385.67S148F837; brightness: 239
G0X383.67S0; brightness: 255
M3S1000
G4P0.001

G1X382.67S205F787; brightness: 223
G1X381.67S661F386; brightness: 95
G1X381.67S148F837; brightness: 239
M3S0; EOL: x=[0 <- 7], y=6
G0X381.67Y237.15S0; goto line start->
G1X381.67S604F436; brightness: 111
G1X382.67S205F787; brightness: 223
G0X386.67S0; brightness: 255
M3S1000
G4P0.001

G1X387.67S148F837; brightness: 239
G1X388.67S661F386; brightness: 95
M3S0; EOL: x=[0 -> 7], y=5
G0X388.67Y238.15S0; goto line start<- [backlash_compensation_x: 0.000]
G1X387.67S629F414; brightness: 104
G1X386.67S358F652; brightness: 180
G1X384.67S376F637; brightness: 175
G1X383.67S319F687; brightness: 191
G1X382.67S376F637; brightness: 175
G1X381.67S369F643; brightness: 177
G1X381.67S604F436; brightness: 111
M3S0; EOL: x=[0 <- 7], y=4
G0X381.67Y239.15S0; goto line start->
G1X381.67S604F436; brightness: 111
G1X382.67S715F338; brightness: 80
G1X383.67S430F589; brightness: 160
G1X385.67S1001F88; brightness: 0
G1X386.67S430F589; brightness: 160
G1X387.67S772F288; brightness: 64
G1X388.67S665F382; brightness: 94
M3S0; EOL: x=[0 -> 7], y=3
G0X388.67Y240.15S0; goto line start<- [backlash_compensation_x: 0.000]
G1X387.67S661F386; brightness: 95
G1X386.67S622F420; brightness: 106
G1X385.67S544F489; brightness: 128
G1X383.67S1001F88; brightness: 0
G1X382.67S430F589; brightness: 160
G1X381.67S422F596; brightness: 162
G1X381.67S604F436; brightness: 111
M3S0; EOL: x=[0 <- 7], y=2
G0X381.67Y241.15S0; goto line start->
G1X381.67S148F837; brightness: 239
G1X382.67S683F367; brightness: 89
G1X383.67S401F615; brightness: 168
G1X384.67S194F797; brightness: 226
G1X385.67S430F589; brightness: 160
G1X386.67S401F615; brightness: 168
G1X387.67S683F367; brightness: 89
G1X388.67S262F737; brightness: 207
M3S0; EOL: x=[0 -> 7], y=1
G0X387.67Y242.15S0; goto line start<- [backlash_compensation_x: 0.000]
G1X386.67S148F837; brightness: 239
G1X385.67S661F386; brightness: 95
G1X383.67S547F486; brightness: 127
G1X382.67S544F489; brightness: 128
G1X382.67S148F837; brightness: 239
M3S0; EOL: x=[1 <- 6], y=0
; EndPart
M3S0

; Begin part c0.3 @ pixel (251,3) with dimensions 8x8
G0X401.67Y242.15S0; ; Move to start (401.671707153,242.149847412)
M3S0
G4P0
G0X402.67Y235.15S0; goto line start->
G1X402.67S148F837; brightness: 239
G1X404.67S547F486; brightness: 127
G1X406.67S604F436; brightness: 111
G1X407.67S148F837; brightness: 239
M3S0; EOL: x=[1 -> 6], y=7
G0X408.67Y236.15S0; goto line start<- [backlash_compensation_x: 0.000]
G1X407.67S205F787; brightness: 223
G1X406.67S661F386; brightness: 95
G1X405.67S148F837; brightness: 239
G0X403.67S0; brightness: 255
M3S1000
G4P0.001

G1X402.67S205F787; brightness: 223
G1X401.67S719F335; brightness: 79
G1X401.67S148F837; brightness: 239
M3S0; EOL: x=[0 <- 7], y=6
G0X401.67Y237.15S0; goto line start->
G1X401.67S604F436; brightness: 111
G1X402.67S148F837; brightness: 239
G0X406.67S0; brightness: 255
M3S1000
G4P0.001

G1X407.67S148F837; brightness: 239
G1X408.67S661F386; brightness: 95
M3S0; EOL: x=[0 -> 7], y=5
G0X408.67Y238.15S0; goto line start<- [backlash_compensation_x: 0.000]
G1X407.67S629F414; brightness: 104
G1X406.67S358F652; brightness: 180
G1X404.67S376F637; brightness: 175
G1X403.67S319F687; brightness: 191
G1X402.67S376F637; brightness: 175
G1X401.67S369F643; brightness: 177
G1X401.67S661F386; brightness: 95
M3S0; EOL: x=[0 <- 7], y=4
G0X401.67Y239.15S0; goto line start->
G1X401.67S661F386; brightness: 95
G1X402.67S658F389; brightness: 96
G1X403.67S430F589; brightness: 160
G1X405.67S1001F88; brightness: 0
G1X406.67S372F640; brightness: 176
G1X407.67S715F338; brightness: 80
G1X408.67S665F382; brightness: 94
M3S0; EOL: x=[0 -> 7], y=3
G0X408.67Y240.15S0; goto line start<- [backlash_compensation_x: 0.000]
G1X407.67S661F386; brightness: 95
G1X406.67S547F486; brightness: 127
G1X405.67S544F489; brightness: 128
G1X403.67S1001F88; brightness: 0
G1X402.67S487F539; brightness: 144
G1X401.67S422F596; brightness: 162
G1X401.67S604F436; brightness: 111
M3S0; EOL: x=[0 <- 7], y=2
G0X401.67Y241.15S0; goto line start->
G1X401.67S148F837; brightness: 239
G1X402.67S683F367; brightness: 89
G1X403.67S390F624; brightness: 171
G1X404.67S194F797; brightness: 226
G1X405.67S430F589; brightness: 160
G1X406.67S380F633; brightness: 174
G1X407.67S683F367; brightness: 89
G1X408.67S205F787; brightness: 223
M3S0; EOL: x=[0 -> 7], y=1
G0X407.67Y242.15S0; goto line start<- [backlash_compensation_x: 0.000]
G1X406.67S148F837; brightness: 239
G1X405.67S661F386; brightness: 95
G1X403.67S547F486; brightness: 127
G1X402.67S544F489; brightness: 128
G1X402.67S148F837; brightness: 239
M3S0; EOL: x=[1 <- 6], y=0
; EndPart
M3S0

; Begin part c0.2 @ pixel (271,3) with dimensions 8x8
G0X421.67Y242.15S0; ; Move to start (421.671707153,242.149847412)
M3S0
G4P0
G0X422.67Y235.15S0; goto line start->
G1X422.67S148F837; brightness: 239
G1X424.67S547F486; brightness: 127
G1X426.67S604F436; brightness: 111
G1X427.67S148F837; brightness: 239
M3S0; EOL: x=[1 -> 6], y=7
G0X428.67Y236.15S0; goto line start<- [backlash_compensation_x: 0.000]
G1X427.67S205F787; brightness: 223
G1X426.67S661F386; brightness: 95
G1X425.67S148F837; brightness: 239
G0X423.67S0; brightness: 255
M3S1000
G4P0.001

G1X422.67S205F787; brightness: 223
G1X421.67S719F335; brightness: 79
G1X421.67S148F837; brightness: 239
M3S0; EOL: x=[0 <- 7], y=6
G0X421.67Y237.15S0; goto line start->
G1X421.67S604F436; brightness: 111
G1X422.67S148F837; brightness: 239
G0X426.67S0; brightness: 255
M3S1000
G4P0.001

G1X427.67S148F837; brightness: 239
G1X428.67S604F436; brightness: 111
M3S0; EOL: x=[0 -> 7], y=5
G0X428.67Y238.15S0; goto line start<- [backlash_compensation_x: 0.000]
G1X427.67S629F414; brightness: 104
G1X426.67S358F652; brightness: 180
G1X423.67S376F637; brightness: 175
G1X422.67S433F586; brightness: 159
G1X421.67S369F643; brightness: 177
G1X421.67S661F386; brightness: 95
M3S0; EOL: x=[0 <- 7], y=4
G0X421.67Y239.15S0; goto line start->
G1X421.67S661F386; brightness: 95
G1X422.67S658F389; brightness: 96
G1X423.67S430F589; brightness: 160
G1X425.67S1001F88; brightness: 0
G1X426.67S372F640; brightness: 176
G1X427.67S715F338; brightness: 80
G1X428.67S647F398; brightness: 99
M3S0; EOL: x=[0 -> 7], y=3
G0X428.67Y240.15S0; goto line start<- [backlash_compensation_x: 0.000]
G1X427.67S604F436; brightness: 111
G1X426.67S587F451; brightness: 116
G1X425.67S601F439; brightness: 112
G1X423.67S1001F88; brightness: 0
G1X422.67S487F539; brightness: 144
G1X421.67S383F630; brightness: 173
G1X421.67S604F436; brightness: 111
M3S0; EOL: x=[0 <- 7], y=2
G0X421.67Y241.15S0; goto line start->
G1X421.67S148F837; brightness: 239
G1X422.67S736F320; brightness: 74
G1X423.67S390F624; brightness: 171
G1X424.67S248F749; brightness: 211
G1X425.67S430F589; brightness: 160
G1X426.67S380F633; brightness: 174
G1X427.67S683F367; brightness: 89
G1X428.67S205F787; brightness: 223
M3S0; EOL: x=[0 -> 7], y=1
G0X427.67Y242.15S0; goto line start<- [backlash_compensation_x: 0.000]
G1X426.67S148F837; brightness: 239
G1X425.67S604F436; brightness: 111
G1X423.67S547F486; brightness: 127
G1X422.67S544F489; brightness: 128
G1X422.67S148F837; brightness: 239
M3S0; EOL: x=[1 <- 6], y=0
; EndPart
M3S0

; Begin part c0.1 @ pixel (291,3) with dimensions 8x8
G0X441.67Y242.15S0; ; Move to start (441.671707153,242.149847412)
M3S0
G4P0
G0X442.67Y235.15S0; goto line start->
G1X442.67S148F837; brightness: 239
G1X444.67S547F486; brightness: 127
G1X445.67S604F436; brightness: 111
G1X446.67S661F386; brightness: 95
G1X447.67S148F837; brightness: 239
M3S0; EOL: x=[1 -> 6], y=7
G0X448.67Y236.15S0; goto line start<- [backlash_compensation_x: 0.000]
G1X447.67S205F787; brightness: 223
G1X446.67S661F386; brightness: 95
G1X445.67S148F837; brightness: 239
G0X443.67S0; brightness: 255
M3S1000
G4P0.001

G1X442.67S205F787; brightness: 223
G1X441.67S776F285; brightness: 63
G1X441.67S148F837; brightness: 239
M3S0; EOL: x=[0 <- 7], y=6
G0X441.67Y237.15S0; goto line start->
G1X441.67S604F436; brightness: 111
G1X442.67S148F837; brightness: 239
G0X446.67S0; brightness: 255
M3S1000
G4P0.001

G1X447.67S148F837; brightness: 239
G1X448.67S604F436; brightness: 111
M3S0; EOL: x=[0 -> 7], y=5
G0X448.67Y238.15S0; goto line start<- [backlash_compensation_x: 0.000]
G1X447.67S683F367; brightness: 89
G1X446.67S340F668; brightness: 185
G1X445.67S433F586; brightness: 159
G1X442.67S376F637; brightness: 175
G1X441.67S369F643; brightness: 177
G1X441.67S604F436; brightness: 111
M3S0; EOL: x=[0 <- 7], y=4
G0X441.67Y239.15S0; goto line start->
G1X441.67S604F436; brightness: 111
G1X442.67S658F389; brightness: 96
G1X443.67S430F589; brightness: 160
G1X445.67S1001F88; brightness: 0
G1X446.67S372F640; brightness: 176
G1X447.67S715F338; brightness: 80
G1X448.67S697F354; brightness: 85
M3S0; EOL: x=[0 -> 7], y=3
G0X448.67Y240.15S0; goto line start<- [backlash_compensation_x: 0.000]
G1X447.67S604F436; brightness: 111
G1X446.67S587F451; brightness: 116
G1X445.67S544F489; brightness: 128
G1X443.67S1001F88; brightness: 0
G1X442.67S487F539; brightness: 144
G1X441.67S383F630; brightness: 173
G1X441.67S604F436; brightness: 111
M3S0; EOL: x=[0 <- 7], y=2
G0X441.67Y241.15S0; goto line start->
G1X441.67S148F837; brightness: 239
G1X442.67S736F320; brightness: 74
G1X443.67S390F624; brightness: 171
G1X444.67S248F749; brightness: 211
G1X445.67S430F589; brightness: 160
G1X446.67S344F665; brightness: 184
G1X447.67S683F367; brightness: 89
G1X448.67S205F787; brightness: 223
M3S0; EOL: x=[0 -> 7], y=1
G0X447.67Y242.15S0; goto line start<- [backlash_compensation_x: 0.000]
G1X446.67S148F837; brightness: 239
G1X445.67S604F436; brightness: 111
G1X443.67S547F486; brightness: 127
G1X442.67S544F489; brightness: 128
G1X442.67S148F837; brightness: 239
M3S0; EOL: x=[1 <- 6], y=0
; EndPart
M3S0

; Begin part c0.0 @ pixel (311,3) with dimensions 8x8
G0X461.67Y242.15S0; ; Move to start (461.671707153,242.149847412)
M3S0
G4P0
G0X462.67Y235.15S0; goto line start->
G1X462.67S148F837; brightness: 239
G1X463.67S604F436; brightness: 111
G1X464.67S547F486; brightness: 127
G1X465.67S604F436; brightness: 111
G1X466.67S661F386; brightness: 95
G1X467.67S148F837; brightness: 239
M3S0; EOL: x=[1 -> 6], y=7
G0X468.67Y236.15S0; goto line start<- [backlash_compensation_x: 0.000]
G1X467.67S205F787; brightness: 223
G1X466.67S661F386; brightness: 95
G1X465.67S148F837; brightness: 239
G0X463.67S0; brightness: 255
M3S1000
G4P0.001

G1X462.67S205F787; brightness: 223
G1X461.67S719F335; brightness: 79
G1X461.67S148F837; brightness: 239
M3S0; EOL: x=[0 <- 7], y=6
G0X461.67Y237.15S0; goto line start->
G1X461.67S604F436; brightness: 111
G1X462.67S148F837; brightness: 239
G0X466.67S0; brightness: 255
M3S1000
G4P0.001

G1X467.67S148F837; brightness: 239
G1X468.67S604F436; brightness: 111
M3S0; EOL: x=[0 -> 7], y=5
G0X468.67Y238.15S0; goto line start<- [backlash_compensation_x: 0.000]
G1X467.67S683F367; brightness: 89
G1X466.67S390F624; brightness: 171
G1X465.67S433F586; brightness: 159
G1X464.67S376F637; brightness: 175
G1X463.67S319F687; brightness: 191
G1X462.67S376F637; brightness: 175
G1X461.67S390F624; brightness: 171
G1X461.67S661F386; brightness: 95
M3S0; EOL: x=[0 <- 7], y=4
G0X461.67Y239.15S0; goto line start->
G1X461.67S683F367; brightness: 89
G1X462.67S601F439; brightness: 112
G1X463.67S487F539; brightness: 144
G1X465.67S1001F88; brightness: 0
G1X466.67S372F640; brightness: 176
G1X467.67S658F389; brightness: 96
G1X468.67S697F354; brightness: 85
M3S0; EOL: x=[0 -> 7], y=3
G0X468.67Y240.15S0; goto line start<- [backlash_compensation_x: 0.000]
G1X467.67S604F436; brightness: 111
G1X466.67S587F451; brightness: 116
G1X465.67S487F539; brightness: 144
G1X463.67S1001F88; brightness: 0
G1X462.67S487F539; brightness: 144
G1X461.67S415F602; brightness: 164
G1X461.67S604F436; brightness: 111
M3S0; EOL: x=[0 <- 7], y=2
G0X461.67Y241.15S0; goto line start->
G1X461.67S148F837; brightness: 239
G1X462.67S736F320; brightness: 74
G1X463.67S390F624; brightness: 171
G1X464.67S248F749; brightness: 211
G1X465.67S430F589; brightness: 160
G1X466.67S344F665; brightness: 184
G1X467.67S683F367; brightness: 89
G1X468.67S205F787; brightness: 223
M3S0; EOL: x=[0 -> 7], y=1
G0X467.67Y242.15S0; goto line start<- [backlash_compensation_x: 0.000]
G1X466.67S148F837; brightness: 239
G1X465.67S604F436; brightness: 111
G1X463.67S547F486; brightness: 127
G1X462.67S544F489; brightness: 128
G1X462.67S148F837; brightness: 239
M3S0; EOL: x=[1 <- 6], y=0
; EndPart
M3S0

;EndImage
M5
; gcode_before_job - color: #130df2
M100P100 ; mrbeam_compressor: 100
G4P0.2

; Layer:?, outline of:?, stroke:#130df2, {u'passes': u'1', u'feedrate': u'999', u'progressive': False, u'color': u'#130df2', u'intensity': 1287, u'intensity_user': u'99', u'cut_compressor': 100, 'mpr': 1.29, 'svgDPI': 90, u'engrave': False, u'pierce_time': u'1'}
; pass:1/1
;_gc_nextgen_svg_id:null
G0X467.05Y233.86
F999;#130df2
; gcode_before_path_color
M3S0
G4P0
M03 S1287 ; color: #130df2
G4P0.001

G1X468.01Y234.15
G1X468.87Y234.61
G1X469.62Y235.23
G1X470.24Y235.98
G1X470.70Y236.84
G1X470.99Y237.79
G1X471.08Y238.76
G1X470.99Y239.73
G1X470.70Y240.69
G1X470.24Y241.55
G1X469.62Y242.30
G1X468.87Y242.92
G1X468.01Y243.38
G1X467.05Y243.67
G1X466.08Y243.76
G1X465.11Y243.67
G1X464.16Y243.38
G1X463.30Y242.92
G1X462.55Y242.30
G1X461.93Y241.55
G1X461.47Y240.69
G1X461.18Y239.73
G1X461.08Y238.76
G1X461.18Y237.79
G1X461.47Y236.84
G1X461.93Y235.98
G1X462.55Y235.23
G1X463.30Y234.61
G1X464.16Y234.15
G1X465.11Y233.86
G1X466.08Y233.76
G1X467.05Y233.86
M05

; Layer:?, outline of:?, stroke:#130df2, {u'passes': u'1', u'feedrate': u'999', u'progressive': False, u'color': u'#130df2', u'intensity': 1287, u'intensity_user': u'99', u'cut_compressor': 100, 'mpr': 1.29, 'svgDPI': 90, u'engrave': False, u'pierce_time': u'1'}
; pass:1/1
;_gc_nextgen_svg_id:null
G0X247.03Y233.86
F999;#130df2
; gcode_before_path_color
M3S0
G4P0
M03 S1287 ; color: #130df2
G4P0.001

G1X247.99Y234.15
G1X248.85Y234.61
G1X249.60Y235.23
G1X250.21Y235.98
G1X250.68Y236.84
G1X250.97Y237.79
G1X251.06Y238.76
G1X250.97Y239.73
G1X250.68Y240.69
G1X250.21Y241.55
G1X249.60Y242.30
G1X248.85Y242.92
G1X247.99Y243.38
G1X247.03Y243.67
G1X246.06Y243.76
G1X245.09Y243.67
G1X244.14Y243.38
G1X243.28Y242.92
G1X242.53Y242.30
G1X241.91Y241.55
G1X241.45Y240.69
G1X241.16Y239.73
G1X241.06Y238.76
G1X241.16Y237.79
G1X241.45Y236.84
G1X241.91Y235.98
G1X242.53Y235.23
G1X243.28Y234.61
G1X244.14Y234.15
G1X245.09Y233.86
G1X246.06Y233.76
G1X247.03Y233.86
M05

; Layer:?, outline of:?, stroke:#130df2, {u'passes': u'1', u'feedrate': u'999', u'progressive': False, u'color': u'#130df2', u'intensity': 1287, u'intensity_user': u'99', u'cut_compressor': 100, 'mpr': 1.29, 'svgDPI': 90, u'engrave': False, u'pierce_time': u'1'}
; pass:1/1
;_gc_nextgen_svg_id:null
G0X467.05Y353.86
F999;#130df2
; gcode_before_path_color
M3S0
G4P0
M03 S1287 ; color: #130df2
G4P0.001

G1X468.01Y354.15
G1X468.87Y354.62
G1X469.62Y355.23
G1X470.24Y355.98
G1X470.70Y356.85
G1X470.99Y357.80
G1X471.08Y358.77
G1X470.99Y359.74
G1X470.70Y360.69
G1X470.24Y361.56
G1X469.62Y362.31
G1X468.87Y362.92
G1X468.01Y363.39
G1X467.05Y363.68
G1X466.08Y363.77
G1X465.11Y363.68
G1X464.16Y363.39
G1X463.30Y362.92
G1X462.55Y362.31
G1X461.93Y361.56
G1X461.47Y360.69
G1X461.18Y359.74
G1X461.08Y358.77
G1X461.18Y357.80
G1X461.47Y356.85
G1X461.93Y355.98
G1X462.55Y355.23
G1X463.30Y354.62
G1X464.16Y354.15
G1X465.11Y353.86
G1X466.08Y353.77
G1X467.05Y353.86
M05

; Layer:?, outline of:?, stroke:#130df2, {u'passes': u'1', u'feedrate': u'999', u'progressive': False, u'color': u'#130df2', u'intensity': 1287, u'intensity_user': u'99', u'cut_compressor': 100, 'mpr': 1.29, 'svgDPI': 90, u'engrave': False, u'pierce_time': u'1'}
; pass:1/1
;_gc_nextgen_svg_id:null
G0X247.03Y353.86
F999;#130df2
; gcode_before_path_color
M3S0
G4P0
M03 S1287 ; color: #130df2
G4P0.001

G1X247.99Y354.15
G1X248.85Y354.62
G1X249.60Y355.23
G1X250.21Y355.98
G1X250.68Y356.85
G1X250.97Y357.80
G1X251.06Y358.77
G1X250.97Y359.74
G1X250.68Y360.69
G1X250.21Y361.56
G1X249.60Y362.31
G1X248.85Y362.92
G1X247.99Y363.39
G1X247.03Y363.68
G1X246.06Y363.77
G1X245.09Y363.68
G1X244.14Y363.39
G1X243.28Y362.92
G1X242.53Y362.31
G1X241.91Y361.56
G1X241.45Y360.69
G1X241.16Y359.74
G1X241.06Y358.77
G1X241.16Y357.80
G1X241.45Y356.85
G1X241.91Y355.98
G1X242.53Y355.23
G1X243.28Y354.62
G1X244.14Y354.15
G1X245.09Y353.86
G1X246.06Y353.77
G1X247.03Y353.86
M05

; end of job
M05
M100P0 ; mrbeam_compressor off